X:120
T: Lisheen Slide
S: "Treoir"
Z: B.Black
M: 12/8
L: 1/8
R: slide
K: G
A |: B3 BAB G2 B A2 G | B3 BAG A2 B cBA |
B3 BAB GAG GBd | g2 e dBG A2 B cBA :|
g3 dBd e3 dBd | efg aga bab afd |
g3 dBd ede dBd | efg aga bgf g3 :|
